packages/kaspersky-hexa-ui-icons/src/iconsSVGs/16/ConnectionWifi.svg

<svg width="16" height="16" viewBox="0 0 16 16" fill="none" xmlns="http://www.w3.org/2000/svg">
<path d="M2.17808 6.32347C3.68785 4.86925 5.73897 3.97603 8.00007 3.97603C10.2612 3.97603 12.3123 4.86925 13.8221 6.32347C14.0806 6.57251 14.4921 6.5648 14.7411 6.30625C14.9902 6.04769 14.9825 5.63621 14.7239 5.38717C12.9816 3.70901 10.6108 2.67603 8.00007 2.67603C5.38932 2.67603 3.01849 3.70901 1.27622 5.38717C1.01767 5.63621 1.00996 6.04769 1.259 6.30625C1.50804 6.5648 1.91952 6.57251 2.17808 6.32347Z" fill="black"/>
<path d="M8.00008 6.71132C6.38004 6.71132 4.91989 7.39132 3.88761 8.48331C3.641 8.74418 3.22961 8.75575 2.96873 8.50914C2.70786 8.26253 2.6963 7.85113 2.94291 7.59026C4.21051 6.24934 6.00795 5.41132 8.00008 5.41132C9.9922 5.41132 11.7896 6.24934 13.0572 7.59026C13.3039 7.85113 13.2923 8.26253 13.0314 8.50914C12.7705 8.75575 12.3591 8.74418 12.1125 8.48331C11.0803 7.39132 9.62011 6.71132 8.00008 6.71132Z" fill="black"/>
<path d="M5.71002 10.5409C6.24807 9.8681 7.0738 9.43898 8.00019 9.43898C8.92658 9.43898 9.75231 9.8681 10.2904 10.5409C10.5146 10.8213 10.9236 10.8668 11.204 10.6426C11.4843 10.4184 11.5299 10.0094 11.3057 9.72905C10.5315 8.76096 9.33827 8.13898 8.00019 8.13898C6.66211 8.13898 5.46886 8.76096 4.69472 9.72905C4.47052 10.0094 4.51605 10.4184 4.79642 10.6426C5.07679 10.8668 5.48582 10.8213 5.71002 10.5409Z" fill="black"/>
<path d="M8.00014 13.5864C8.76502 13.5864 9.38508 12.9663 9.38508 12.2014C9.38508 11.4366 8.76502 10.8165 8.00014 10.8165C7.23527 10.8165 6.61521 11.4366 6.61521 12.2014C6.61521 12.9663 7.23527 13.5864 8.00014 13.5864Z" fill="black"/>
</svg>

<svg xmlns="http://www.w3.org/2000/svg" width="16" height="16" fill="none" viewBox="0 0 16 16"><path fill="#000" fill-rule="evenodd" d="M2.178 6.3235C3.688 4.8693 5.739 3.976 8 3.976c2.2612 0 4.3123.8933 5.8221 2.3475a.65.65 0 0 0 .919-.0172.65.65 0 0 0-.0172-.9191C12.9816 3.709 10.6108 2.676 8.0001 2.676c-2.6108 0-4.9816 1.033-6.7239 2.7112a.65.65 0 1 0 .9019.9363M8 6.7113c-1.62 0-3.0801.68-4.1124 1.772a.65.65 0 1 1-.9447-.893c1.2676-1.341 3.065-2.179 5.0572-2.179s3.7895.838 5.0571 2.179a.65.65 0 1 1-.9447.893c-1.0322-1.092-2.4924-1.772-4.1124-1.772M5.71 10.541c.538-.6728 1.3638-1.102 2.2902-1.102s1.7521.4292 2.2902 1.102a.65.65 0 1 0 1.0152-.8118C10.5315 8.761 9.3383 8.139 8.0002 8.139s-2.5313.622-3.3055 1.59a.65.65 0 1 0 1.0153.8119m2.2901 3.0455c.765 0 1.385-.6201 1.385-1.385S8.765 10.8165 8 10.8165c-.7648 0-1.3849.6201-1.3849 1.3849s.62 1.385 1.385 1.385"/></svg>
